public/img/archive.svg

<svg width="100" height="100" viewBox="0 0 100 100" fill="none" xmlns="http://www.w3.org/2000/svg">
<path d="M49.83 91.5501C42.4967 91.5501 35.1833 91.5501 27.89 91.5501C24.01 91.5501 20.13 91.5501 16.24 91.4701C15.9326 91.4719 15.6264 91.4315 15.33 91.3501C13.6819 90.9443 12.1793 90.0876 10.9907 88.8759C9.802 87.6643 8.9742 86.1456 8.60001 84.4901C8.53158 84.2083 8.49468 83.9199 8.49001 83.6301C8.49001 82.6901 8.49001 81.7501 8.49001 80.8101C8.49001 62.5167 8.49001 44.2234 8.49001 25.93C8.49001 24.93 8.49001 23.93 8.49001 22.93C8.48906 22.7135 8.51937 22.4979 8.58001 22.2901C8.90997 21.1019 9.45943 19.986 10.2 19C11.9733 16.8134 13.76 14.6367 15.56 12.4701C16.22 11.6801 16.91 10.9201 17.62 10.1701C18.1189 9.63196 18.7263 9.20579 19.402 8.91965C20.0777 8.63351 20.8064 8.4939 21.54 8.51005C23.67 8.51005 25.8 8.51005 27.93 8.51005L68 8.42005C70 8.42005 72 8.42005 74 8.42005C75.53 8.42005 77.07 8.42005 78.6 8.42005C79.4565 8.39682 80.2978 8.64921 81 9.14005C81.6023 9.53803 82.162 9.99713 82.67 10.5101C83.74 11.6601 84.76 12.8501 85.77 14.0501C86.78 15.2501 87.77 16.5 88.77 17.73C89.8708 19.003 90.7284 20.4673 91.3 22.05C91.431 22.4228 91.4986 22.8149 91.5 23.21C91.5 35.3434 91.5 47.4767 91.5 59.6101C91.5 67.3001 91.5 74.9901 91.5 82.6901C91.5166 84.6208 90.8628 86.4976 89.65 88.0001C88.5731 89.4179 87.1068 90.4916 85.43 91.09C84.7891 91.3244 84.1124 91.4462 83.43 91.4501C79.91 91.4501 76.43 91.5401 72.87 91.5501C65.1767 91.5501 57.4833 91.5501 49.79 91.5501H49.83ZM24.89 50.09C25.3 50.74 49.4 74.8701 50 75.2301C50.1148 75.1533 50.225 75.0698 50.33 74.9801C50.97 74.3701 51.62 73.7701 52.25 73.1501C53.96 71.4401 55.65 69.7201 57.36 68.0101C59.07 66.3001 61.07 64.32 62.92 62.48L66.44 58.96C67.37 58.03 68.31 57.11 69.24 56.18C70.17 55.25 70.95 54.42 71.81 53.55L74.81 50.55C74.925 50.4131 75.0319 50.2695 75.13 50.12H59.21V40.84C58.56 40.72 41.16 40.74 40.72 40.84V50.0601L24.89 50.09ZM81.44 17.56L81.5 17.46L81.15 17.06C80.0234 15.84 78.8967 14.62 77.77 13.4C77.671 13.3011 77.5463 13.2318 77.41 13.2C77.1998 13.1538 76.9852 13.1304 76.77 13.1301C73.95 13.1301 71.14 13.0701 68.32 13.0601L26.65 13.0001H22.37C22.265 12.9832 22.1574 12.9937 22.0575 13.0305C21.9577 13.0672 21.869 13.1291 21.8 13.2101C20.75 14.5401 19.68 15.86 18.63 17.21C18.5625 17.3211 18.5056 17.4383 18.46 17.56H81.44Z" fill="white"/>
</svg>

<svg id="Слой_1" data-name="Слой 1" xmlns="http://www.w3.org/2000/svg" viewBox="0 0 100 100"><title>icons</title><path d="M49.83,91.55q-11,0-21.94,0c-3.88,0-7.76,0-11.65-.08a3.36,3.36,0,0,1-.91-.12A9.14,9.14,0,0,1,8.6,84.49a3.91,3.91,0,0,1-.11-.86c0-.94,0-1.88,0-2.82q0-27.44,0-54.88c0-1,0-2,0-3a2.25,2.25,0,0,1,.09-.64A9.88,9.88,0,0,1,10.2,19q2.66-3.28,5.36-6.53c.66-.79,1.35-1.55,2.06-2.3a5.19,5.19,0,0,1,3.92-1.66c2.13,0,4.26,0,6.39,0L68,8.42c2,0,4,0,6,0,1.53,0,3.07,0,4.6,0a4,4,0,0,1,2.4.72,10.49,10.49,0,0,1,1.67,1.37c1.07,1.15,2.09,2.34,3.1,3.54s2,2.45,3,3.68a13.74,13.74,0,0,1,2.53,4.32,3.54,3.54,0,0,1,.2,1.16q0,18.2,0,36.4c0,7.69,0,15.38,0,23.08A8.34,8.34,0,0,1,89.65,88a9.17,9.17,0,0,1-4.22,3.09,5.92,5.92,0,0,1-2,.36c-3.52,0-7,.09-10.56.1q-11.54,0-23.08,0ZM24.89,50.09C25.3,50.74,49.4,74.87,50,75.23a3.5,3.5,0,0,0,.33-.25c.64-.61,1.29-1.21,1.92-1.83,1.71-1.71,3.4-3.43,5.11-5.14s3.71-3.69,5.56-5.53l3.52-3.52c.93-.93,1.87-1.85,2.8-2.78s1.71-1.76,2.57-2.63l3-3a4.55,4.55,0,0,0,.32-.43H59.21V40.84c-.65-.12-18.05-.1-18.49,0v9.22ZM81.44,17.56l.06-.1-.35-.4q-1.69-1.83-3.38-3.66a.75.75,0,0,0-.36-.2,3,3,0,0,0-.64-.07c-2.82,0-5.63-.06-8.45-.07L26.65,13H22.37a.62.62,0,0,0-.57.21c-1.05,1.33-2.12,2.65-3.17,4a2.07,2.07,0,0,0-.17.35Z"/></svg>
